icons/LockOpen_2_filled.svg

<svg width="24" height="24" viewBox="0 0 24 24" fill="none" xmlns="http://www.w3.org/2000/svg">
<path fill-rule="evenodd" clip-rule="evenodd" d="M10.6271,2.45273c0.9847,-0.2973 2.0393,-0.26692 3.0053,0.08657c0.9659,0.3535 1.7911,1.011 2.3513,1.87367c0.2256,0.34738 0.1268,0.81188 -0.2205,1.03748c-0.3474,0.22559 -0.8119,0.12686 -1.0375,-0.22053c-0.3833,-0.59024 -0.9479,-1.04011 -1.6088,-1.28198c-0.6609,-0.24186 -1.3825,-0.26265 -2.0563,-0.05923c-0.6737,0.20342 -1.26322,0.62005 -1.67987,1.18725c-0.41665,0.5672 -0.63792,1.25433 -0.63055,1.95807l0.00008,0.00791h-0.00004l-0.00016,2.20806h8.24994c1.5188,0 2.75,1.2312 2.75,2.75v7c0,1.5188 -1.2312,2.75 -2.75,2.75h-10c-1.51878,0 -2.75,-1.2312 -2.75,-2.75v-7c0,-1.5188 1.23122,-2.75 2.75,-2.75h0.25006l0.00016,-2.20438c-0.00987,-1.02712 0.31348,-2.0298 0.92162,-2.85768c0.60895,-0.82899 1.47055,-1.43791 2.45526,-1.73521zM12,13.75c-0.9665,0 -1.75,0.7835 -1.75,1.75c0,0.9665 0.7835,1.75 1.75,1.75c0.9665,0 1.75,-0.7835 1.75,-1.75c0,-0.9665 -0.7835,-1.75 -1.75,-1.75z" fill="#002B51"/>
</svg>

<svg width="24" height="24" viewBox="0 0 24 24" fill="none" xmlns="http://www.w3.org/2000/svg">
<path fill-rule="evenodd" clip-rule="evenodd" d="M10.6271 2.45273C11.6118 2.15543 12.6664 2.18581 13.6324 2.5393C14.5983 2.8928 15.4235 3.5503 15.9837 4.41297C16.2093 4.76035 16.1105 5.22485 15.7632 5.45045C15.4158 5.67604 14.9513 5.57731 14.7257 5.22992C14.3424 4.63968 13.7778 4.18981 13.1169 3.94794C12.456 3.70608 11.7344 3.68529 11.0606 3.88871C10.3869 4.09213 9.79738 4.50876 9.38073 5.07596C8.96408 5.64316 8.74281 6.33029 8.75018 7.03403L8.75026 7.04194H8.75022L8.75006 9.25H17C18.5188 9.25 19.75 10.4812 19.75 12V19C19.75 20.5188 18.5188 21.75 17 21.75H7C5.48122 21.75 4.25 20.5188 4.25 19V12C4.25 10.4812 5.48122 9.25 7 9.25H7.25006L7.25022 7.04562C7.24035 6.0185 7.5637 5.01582 8.17184 4.18794C8.78079 3.35895 9.64239 2.75003 10.6271 2.45273ZM12 13.75C11.0335 13.75 10.25 14.5335 10.25 15.5C10.25 16.4665 11.0335 17.25 12 17.25C12.9665 17.25 13.75 16.4665 13.75 15.5C13.75 14.5335 12.9665 13.75 12 13.75Z" fill="#002B51"/>
</svg>
